; generated by Slic3r 1.2.9 on 2016-11-09 at 11:05:05

; external perimeters extrusion width = 0.50mm
; perimeters extrusion width = 0.72mm
; infill extrusion width = 0.72mm
; solid infill extrusion width = 0.72mm
; top infill extrusion width = 0.72mm

M107
M104 S200 ; set temperature
G28 ; home all axes
G1 Z5 F5000 ; lift nozzle

M109 S200 ; wait for temperature to be reached
G21 ; set units to millimeters
G90 ; use absolute coordinates
M82 ; use absolute distances for extrusion
G92 E0
G1 Z0.500 F7800.000
G1 E-2.00000 F2400.00000
G92 E0
G1 X73.207 Y73.207 F7800.000
G1 E2.00000 F2400.00000
G1 X74.680 Y71.811 E2.12812 F1800.000
G1 X76.093 Y70.603 E2.24555
G1 X77.564 Y69.465 E2.36296
G1 X79.090 Y68.401 E2.48043
G1 X80.665 Y67.413 E2.59786
G1 X82.288 Y66.504 E2.71530
G1 X83.953 Y65.675 E2.83274
G1 X85.656 Y64.929 E2.95015
G1 X87.395 Y64.267 E3.06764
G1 X89.162 Y63.692 E3.18501
G1 X90.958 Y63.204 E3.30251
G1 X92.774 Y62.805 E3.41990
G1 X94.608 Y62.495 E3.53736
G1 X96.454 Y62.275 E3.65475
G1 X98.310 Y62.147 E3.77224
G1 X100.194 Y62.110 E3.89125
G1 X102.028 Y62.163 E4.00710 F1800.000
G1 X103.882 Y62.308 E4.12452
G1 X105.392 Y62.495 E4.22061
G1 X107.226 Y62.805 E4.33808
G1 X109.371 Y63.286 E4.47687
G1 X111.161 Y63.790 E4.59426
G1 X112.924 Y64.381 E4.71173
G1 X114.656 Y65.058 E4.82917
G1 X116.353 Y65.820 E4.94659
G1 X117.712 Y66.504 E5.04268
G1 X119.335 Y67.413 E5.16012
G1 X121.192 Y68.589 E5.29893
G1 X122.707 Y69.667 E5.41635
G1 X124.168 Y70.817 E5.53378
G1 X125.571 Y72.038 E5.65121
G1 X126.673 Y73.088 E5.74730
G1 X127.962 Y74.429 E5.86474
G1 X129.183 Y75.832 E5.98217
G1 X130.333 Y77.293 E6.09963
G1 X131.411 Y78.808 E6.21703
G1 X132.587 Y80.665 E6.35583
G1 X133.496 Y82.288 E6.47328
G1 X134.181 Y83.647 E6.56938
G1 X134.942 Y85.344 E6.68680
G1 X135.619 Y87.076 E6.80423
G1 X136.210 Y88.840 E6.92172
G1 X136.714 Y90.629 E7.03909
G1 X137.195 Y92.774 E7.17788
G1 X137.505 Y94.608 E7.29535
G1 X137.725 Y96.454 E7.41275
G1 X137.837 Y97.972 E7.50883
G1 X137.891 Y99.831 E7.62633
G1 X137.837 Y102.028 E7.76510
G1 X137.692 Y103.882 E7.88250
G1 X137.456 Y105.727 E7.99997
G1 X137.130 Y107.558 E8.11737
G1 X136.796 Y109.043 E8.21348
G1 X136.308 Y110.838 E8.33093
G1 X135.733 Y112.605 E8.44832
G1 X134.942 Y114.656 E8.58714
G1 X134.180 Y116.353 E8.70457
G1 X133.337 Y118.011 E8.82202
G1 X132.587 Y119.335 E8.91810
G1 X131.599 Y120.910 E9.03554
G1 X130.534 Y122.436 E9.15301
G1 X129.397 Y123.907 E9.27040
G1 X127.962 Y125.571 E9.40919
G1 X126.673 Y126.912 E9.52663
G1 X125.321 Y128.188 E9.64404
G1 X123.907 Y129.397 E9.76151
G1 X122.436 Y130.534 E9.87890
G1 X120.910 Y131.599 E9.99636
G1 X119.625 Y132.413 E10.09247
G1 X117.712 Y133.496 E10.23126
G1 X116.047 Y134.325 E10.34869
G1 X114.344 Y135.071 E10.46610
G1 X112.605 Y135.733 E10.58359
G1 X110.838 Y136.308 E10.70098
G1 X109.043 Y136.796 E10.81843
G1 X107.558 Y137.130 E10.91454
G1 X105.393 Y137.505 E11.05330
G1 X103.546 Y137.725 E11.17069
G1 X101.690 Y137.853 E11.28819
G1 X99.831 Y137.891 E11.40558
G1 X98.310 Y137.853 E11.50169
G1 X96.454 Y137.725 E11.61916
G1 X94.608 Y137.505 E11.73656
G1 X92.774 Y137.195 E11.85403
G1 X90.958 Y136.796 E11.97143
G1 X88.840 Y136.210 E12.11019
G1 X87.395 Y135.733 E12.20630
G1 X85.656 Y135.071 E12.32376
G1 X83.953 Y134.325 E12.44120
G1 X82.288 Y133.496 E12.55863
G1 X80.665 Y132.587 E12.67607
G1 X79.090 Y131.599 E12.79350
G1 X77.293 Y130.333 E12.93228
G1 X76.093 Y129.397 E13.02838
G1 X74.680 Y128.189 E13.14581
G1 X73.327 Y126.912 E13.26325
G1 X72.038 Y125.571 E13.38070
G1 X70.603 Y123.907 E13.51948
G1 X69.465 Y122.436 E13.63690
G1 X68.401 Y120.910 E13.75436
G1 X67.413 Y119.335 E13.87179
G1 X66.504 Y117.712 E13.98923
G1 X65.820 Y116.353 E14.08532
G1 X65.058 Y114.656 E14.20274
G1 X64.267 Y112.605 E14.34156
G1 X63.692 Y110.838 E14.45895
G1 X63.204 Y109.042 E14.57643
G1 X62.805 Y107.226 E14.69383
G1 X62.495 Y105.392 E14.81130
G1 X62.308 Y103.882 E14.90739
G1 X62.163 Y102.028 E15.02481
G1 X62.109 Y100.169 E15.14226
G1 X62.146 Y98.335 E15.25806
G1 X62.308 Y96.118 E15.39845
G1 X62.544 Y94.273 E15.51592
G1 X62.870 Y92.442 E15.63332
G1 X63.204 Y90.958 E15.72940
G1 X63.692 Y89.162 E15.84690
G1 X64.381 Y87.076 E15.98565
G1 X65.058 Y85.344 E16.10309
G1 X65.820 Y83.647 E16.22052
G1 X66.663 Y81.989 E16.33796
G1 X67.587 Y80.375 E16.45539
G1 X68.401 Y79.090 E16.55147
G1 X69.465 Y77.564 E16.66894
G1 X70.817 Y75.832 E16.80771
G1 X72.039 Y74.429 E16.92514
G1 X73.154 Y73.260 E17.02717
G1 E15.02717 F2400.00000
G92 E0
G1 X116.466 Y116.466 F7800.000
G1 E2.00000 F2400.00000
G1 X115.638 Y117.254 E2.07217 F1800.000
G1 X114.773 Y118.000 E2.14434
G1 X113.872 Y118.704 E2.21651
G1 X112.937 Y119.362 E2.28869
G1 X111.971 Y119.973 E2.36086
G1 X110.977 Y120.536 E2.43303
G1 X109.956 Y121.050 E2.50520
G1 X108.911 Y121.514 E2.57738
G1 X107.845 Y121.925 E2.64955
G1 X106.760 Y122.283 E2.72171
G1 X105.658 Y122.588 E2.79388
G1 X104.543 Y122.839 E2.86606
G1 X103.417 Y123.034 E2.93823
G1 X102.282 Y123.174 E3.01040
G1 X101.143 Y123.258 E3.08257
G1 X100.000 Y123.286 E3.15474
G1 X98.857 Y123.258 E3.22691
G1 X97.718 Y123.174 E3.29909
G1 X96.583 Y123.034 E3.37126
G1 X95.457 Y122.839 E3.44343
G1 X94.342 Y122.588 E3.51560
G1 X93.240 Y122.283 E3.58778
G1 X92.155 Y121.925 E3.65994
G1 X91.089 Y121.514 E3.73211
G1 X90.044 Y121.050 E3.80429
G1 X89.023 Y120.536 E3.87646
G1 X88.029 Y119.973 E3.94863
G1 X87.063 Y119.362 E4.02080
G1 X86.128 Y118.704 E4.09297
G1 X85.227 Y118.000 E4.16515
G1 X84.362 Y117.254 E4.23732
G1 X83.534 Y116.466 E4.30949
G1 X82.746 Y115.638 E4.38166
G1 X82.000 Y114.773 E4.45382
G1 X81.296 Y113.872 E4.52600
G1 X80.638 Y112.937 E4.59817
G1 X80.027 Y111.971 E4.67035
G1 X79.464 Y110.977 E4.74251
G1 X78.950 Y109.956 E4.81468
G1 X78.486 Y108.911 E4.88686
G1 X78.075 Y107.845 E4.95903
G1 X77.717 Y106.760 E5.03120
G1 X77.412 Y105.658 E5.10337
G1 X77.161 Y104.543 E5.17555
G1 X76.966 Y103.417 E5.24772
G1 X76.826 Y102.282 E5.31989
G1 X76.742 Y101.143 E5.39206
G1 X76.714 Y100.000 E5.46423
G1 X76.742 Y98.857 E5.53640
G1 X76.826 Y97.718 E5.60857
G1 X76.966 Y96.583 E5.68075
G1 X77.161 Y95.457 E5.75291
G1 X77.412 Y94.342 E5.82509
G1 X77.717 Y93.240 E5.89727
G1 X78.075 Y92.155 E5.96943
G1 X78.486 Y91.089 E6.04160
G1 X78.950 Y90.044 E6.11378
G1 X79.464 Y89.023 E6.18595
G1 X80.027 Y88.029 E6.25811
G1 X80.638 Y87.063 E6.33029
G1 X81.296 Y86.128 E6.40246
G1 X82.000 Y85.227 E6.47464
G1 X82.746 Y84.362 E6.54681
G1 X83.534 Y83.534 E6.61897
G1 X84.362 Y82.746 E6.69114
G1 X85.227 Y82.000 E6.76331
G1 X86.128 Y81.296 E6.83549
G1 X87.063 Y80.638 E6.90766
G1 X88.029 Y80.027 E6.97984
G1 X89.023 Y79.464 E7.05200
G1 X90.044 Y78.950 E7.12417
G1 X91.089 Y78.486 E7.19635
G1 X92.155 Y78.075 E7.26852
G1 X93.240 Y77.717 E7.34068
G1 X94.342 Y77.412 E7.41286
G1 X95.457 Y77.161 E7.48504
G1 X96.583 Y76.966 E7.55720
G1 X97.718 Y76.826 E7.62938
G1 X98.857 Y76.742 E7.70155
G1 X99.982 Y76.714 E7.77258 F1800.000
G1 X101.142 Y76.742 E7.84583
G1 X102.282 Y76.826 E7.91806
G1 X103.417 Y76.966 E7.99023
G1 X104.543 Y77.161 E8.06240
G1 X105.658 Y77.412 E8.13458
G1 X106.760 Y77.717 E8.20675
G1 X107.845 Y78.075 E8.27891
G1 X108.911 Y78.486 E8.35108
G1 X109.956 Y78.950 E8.42326
G1 X110.977 Y79.464 E8.49543
G1 X111.971 Y80.027 E8.56760
G1 X112.937 Y80.638 E8.63978
G1 X113.872 Y81.296 E8.71195
G1 X114.773 Y82.000 E8.78412
G1 X115.638 Y82.746 E8.85629
G1 X116.466 Y83.534 E8.92846
G1 X117.254 Y84.362 E9.00063
G1 X118.000 Y85.227 E9.07280
G1 X118.704 Y86.128 E9.14497
G1 X119.362 Y87.063 E9.21715
G1 X119.973 Y88.029 E9.28932
G1 X120.536 Y89.023 E9.36149
G1 X121.050 Y90.044 E9.43366
G1 X121.514 Y91.089 E9.50584
G1 X121.925 Y92.155 E9.57801
G1 X122.283 Y93.240 E9.65017
G1 X122.588 Y94.342 E9.72234
G1 X122.839 Y95.457 E9.79452
G1 X123.034 Y96.583 E9.86669
G1 X123.174 Y97.718 E9.93886
G1 X123.258 Y98.857 E10.01103
G1 X123.286 Y100.000 E10.08320
G1 X123.258 Y101.143 E10.15537
G1 X123.174 Y102.282 E10.22755
G1 X123.034 Y103.417 E10.29972
G1 X122.839 Y104.543 E10.37189
G1 X122.588 Y105.658 E10.44406
G1 X122.283 Y106.760 E10.51624
G1 X121.925 Y107.845 E10.58840
G1 X121.514 Y108.911 E10.66057
G1 X121.050 Y109.956 E10.73275
G1 X120.536 Y110.977 E10.80492
G1 X119.973 Y111.971 E10.87709
G1 X119.362 Y112.937 E10.94926
G1 X118.704 Y113.872 E11.02144
G1 X118.000 Y114.773 E11.09361
G1 X117.254 Y115.638 E11.16578
G1 X116.517 Y116.411 E11.23321
G1 X115.834 Y115.834 F7800.000
G1 X115.038 Y116.592 E11.30262 F1800.000
G1 X114.206 Y117.310 E11.37201
G1 X113.340 Y117.986 E11.44142
G1 X112.441 Y118.619 E11.51083
G1 X111.512 Y119.207 E11.58023
G1 X110.556 Y119.749 E11.64963
G1 X109.574 Y120.243 E11.71904
G1 X108.569 Y120.689 E11.78845
G1 X107.544 Y121.084 E11.85785
G1 X106.500 Y121.429 E11.92725
G1 X105.441 Y121.722 E11.99665
G1 X104.369 Y121.963 E12.06606
G1 X103.286 Y122.151 E12.13546
G1 X102.195 Y122.285 E12.20487
G1 X101.099 Y122.366 E12.27427
G1 X100.000 Y122.393 E12.34367
G1 X98.901 Y122.366 E12.41308
G1 X97.805 Y122.285 E12.48248
G1 X96.714 Y122.151 E12.55189
G1 X95.631 Y121.963 E12.62129
G1 X94.559 Y121.722 E12.69070
G1 X93.500 Y121.429 E12.76010
G1 X92.456 Y121.084 E12.82950
G1 X91.431 Y120.689 E12.89890
G1 X90.426 Y120.243 E12.96831
G1 X89.444 Y119.749 E13.03771
G1 X88.488 Y119.207 E13.10712
G1 X87.559 Y118.619 E13.17652
G1 X86.660 Y117.986 E13.24593
G1 X85.794 Y117.310 E13.31533
G1 X84.962 Y116.592 E13.38473
G1 X84.166 Y115.834 E13.45414
G1 X83.408 Y115.038 E13.52354
G1 X82.690 Y114.206 E13.59294
G1 X82.014 Y113.340 E13.66235
G1 X81.381 Y112.441 E13.73175
G1 X80.793 Y111.512 E13.80116
G1 X80.251 Y110.556 E13.87056
G1 X79.757 Y109.574 E13.93996
G1 X79.311 Y108.569 E14.00937
G1 X78.916 Y107.544 E14.07877
G1 X78.571 Y106.500 E14.14817
G1 X78.278 Y105.441 E14.21758
G1 X78.037 Y104.369 E14.28698
G1 X77.849 Y103.286 E14.35639
G1 X77.715 Y102.195 E14.42579
G1 X77.634 Y101.099 E14.49520
G1 X77.607 Y100.000 E14.56460
G1 X77.634 Y98.901 E14.63400
G1 X77.715 Y97.805 E14.70341
G1 X77.849 Y96.714 E14.77281
G1 X78.037 Y95.631 E14.84221
G1 X78.278 Y94.559 E14.91162
G1 X78.571 Y93.500 E14.98103
G1 X78.916 Y92.456 E15.05042
G1 X79.311 Y91.431 E15.11983
G1 X79.757 Y90.426 E15.18924
G1 X80.251 Y89.444 E15.25864
G1 X80.793 Y88.488 E15.32804
G1 X81.381 Y87.559 E15.39744
G1 X82.014 Y86.660 E15.46685
G1 X82.690 Y85.794 E15.53626
G1 X83.408 Y84.962 E15.60566
G1 X84.166 Y84.166 E15.67506
G1 X84.962 Y83.408 E15.74446
G1 X85.794 Y82.690 E15.81386
G1 X86.660 Y82.014 E15.88327
G1 X87.559 Y81.381 E15.95268
G1 X88.488 Y80.793 E16.02208
G1 X89.444 Y80.251 E16.09148
G1 X90.426 Y79.757 E16.16088
G1 X91.431 Y79.311 E16.23029
G1 X92.456 Y78.916 E16.29970
G1 X93.500 Y78.571 E16.36909
G1 X94.559 Y78.278 E16.43850
G1 X95.631 Y78.037 E16.50791
G1 X96.714 Y77.849 E16.57731
G1 X97.805 Y77.715 E16.64671
G1 X98.901 Y77.634 E16.71612
G1 X99.982 Y77.607 E16.78440 F1800.000
G1 X101.098 Y77.634 E16.85489
G1 X102.195 Y77.715 E16.92433
G1 X103.286 Y77.849 E16.99373
G1 X104.369 Y78.037 E17.06313
G1 X105.441 Y78.278 E17.13254
G1 X106.500 Y78.571 E17.20195
G1 X107.544 Y78.916 E17.27135
G1 X108.569 Y79.311 E17.34075
G1 X109.574 Y79.757 E17.41016
G1 X110.556 Y80.251 E17.47956
G1 X111.512 Y80.793 E17.54896
G1 X112.441 Y81.381 E17.61837
G1 X113.340 Y82.014 E17.68777
G1 X114.206 Y82.690 E17.75718
G1 X115.038 Y83.408 E17.82658
G1 X115.834 Y84.166 E17.89598
G1 X116.592 Y84.962 E17.96539
G1 X117.310 Y85.794 E18.03479
G1 X117.986 Y86.660 E18.10419
G1 X118.619 Y87.559 E18.17360
G1 X119.207 Y88.488 E18.24300
G1 X119.749 Y89.444 E18.31240
G1 X120.243 Y90.426 E18.38181
G1 X120.689 Y91.431 E18.45122
G1 X121.084 Y92.456 E18.52062
G1 X121.429 Y93.500 E18.59002
G1 X121.722 Y94.559 E18.65942
G1 X121.963 Y95.631 E18.72883
G1 X122.151 Y96.714 E18.79823
G1 X122.285 Y97.805 E18.86764
G1 X122.366 Y98.901 E18.93704
G1 X122.393 Y100.000 E19.00644
G1 X122.366 Y101.099 E19.07585
G1 X122.285 Y102.195 E19.14525
G1 X122.151 Y103.286 E19.21466
G1 X121.963 Y104.369 E19.28406
G1 X121.722 Y105.441 E19.35347
G1 X121.429 Y106.500 E19.42287
G1 X121.084 Y107.544 E19.49227
G1 X120.689 Y108.569 E19.56167
G1 X120.243 Y109.574 E19.63108
G1 X119.749 Y110.556 E19.70048
G1 X119.207 Y111.512 E19.76989
G1 X118.619 Y112.441 E19.83929
G1 X117.986 Y113.340 E19.90870
G1 X117.310 Y114.206 E19.97810
G1 X116.592 Y115.038 E20.04750
G1 X115.886 Y115.780 E20.11217
G1 X115.203 Y115.203 F7800.000
G1 X114.439 Y115.931 E20.17881 F1800.000
G1 X113.640 Y116.620 E20.24544
G1 X112.808 Y117.269 E20.31208
G1 X111.945 Y117.877 E20.37871
G1 X111.053 Y118.441 E20.44535
G1 X110.135 Y118.961 E20.51199
G1 X109.193 Y119.436 E20.57862
G1 X108.228 Y119.864 E20.64526
G1 X107.243 Y120.243 E20.71190
G1 X106.241 Y120.574 E20.77853
G1 X105.224 Y120.856 E20.84517
G1 X104.194 Y121.087 E20.91181
G1 X103.155 Y121.267 E20.97844
G1 X102.107 Y121.397 E21.04508
G1 X101.055 Y121.474 E21.11171
G1 X100.000 Y121.500 E21.17835
G1 X98.945 Y121.474 E21.24499
G1 X97.893 Y121.397 E21.31162
G1 X96.845 Y121.267 E21.37826
G1 X95.806 Y121.087 E21.44489
G1 X94.776 Y120.856 E21.51153
G1 X93.759 Y120.574 E21.57817
G1 X92.757 Y120.243 E21.64480
G1 X91.772 Y119.864 E21.71144
G1 X90.807 Y119.436 E21.77808
G1 X89.865 Y118.961 E21.84471
G1 X88.947 Y118.441 E21.91135
G1 X88.055 Y117.877 E21.97799
G1 X87.192 Y117.269 E22.04462
G1 X86.360 Y116.620 E22.11126
G1 X85.561 Y115.931 E22.17789
G1 X84.797 Y115.203 E22.24453
G1 X84.069 Y114.439 E22.31117
G1 X83.380 Y113.640 E22.37780
G1 X82.731 Y112.808 E22.44444
G1 X82.123 Y111.945 E22.51107
G1 X81.559 Y111.053 E22.57771
G1 X81.039 Y110.135 E22.64435
G1 X80.564 Y109.193 E22.71098
G1 X80.136 Y108.228 E22.77762
G1 X79.757 Y107.243 E22.84426
G1 X79.426 Y106.241 E22.91089
G1 X79.144 Y105.224 E22.97753
G1 X78.913 Y104.194 E23.04417
G1 X78.733 Y103.155 E23.11080
G1 X78.603 Y102.107 E23.17744
G1 X78.526 Y101.055 E23.24408
G1 X78.500 Y100.000 E23.31071
G1 X78.526 Y98.945 E23.37735
G1 X78.603 Y97.893 E23.44398
G1 X78.733 Y96.845 E23.51062
G1 X78.913 Y95.806 E23.57726
G1 X79.144 Y94.776 E23.64389
G1 X79.426 Y93.759 E23.71053
G1 X79.757 Y92.757 E23.77716
G1 X80.136 Y91.772 E23.84380
G1 X80.564 Y90.807 E23.91044
G1 X81.039 Y89.865 E23.97707
G1 X81.559 Y88.947 E24.04371
G1 X82.123 Y88.055 E24.11035
G1 X82.731 Y87.192 E24.17698
G1 X83.380 Y86.360 E24.24362
G1 X84.069 Y85.561 E24.31025
G1 X84.797 Y84.797 E24.37689
G1 X85.561 Y84.069 E24.44353
G1 X86.360 Y83.380 E24.51016
G1 X87.192 Y82.731 E24.57680
G1 X88.055 Y82.123 E24.64344
G1 X88.947 Y81.559 E24.71007
G1 X89.865 Y81.039 E24.77671
G1 X90.807 Y80.564 E24.84334
G1 X91.772 Y80.136 E24.90998
G1 X92.757 Y79.757 E24.97662
G1 X93.759 Y79.426 E25.04325
G1 X94.776 Y79.144 E25.10989
G1 X95.806 Y78.913 E25.17653
G1 X96.845 Y78.733 E25.24316
G1 X97.893 Y78.603 E25.30980
G1 X98.945 Y78.526 E25.37644
G1 X99.983 Y78.500 E25.44197 F1800.000
G1 X101.055 Y78.526 E25.50969
G1 X102.107 Y78.603 E25.57634
G1 X103.155 Y78.733 E25.64298
G1 X104.194 Y78.913 E25.70961
G1 X105.224 Y79.144 E25.77625
G1 X106.241 Y79.426 E25.84289
G1 X107.243 Y79.757 E25.90952
G1 X108.228 Y80.136 E25.97616
G1 X109.193 Y80.564 E26.04280
G1 X110.135 Y81.039 E26.10943
G1 X111.053 Y81.559 E26.17607
G1 X111.945 Y82.123 E26.24271
G1 X112.808 Y82.731 E26.30934
G1 X113.640 Y83.380 E26.37598
G1 X114.439 Y84.069 E26.44261
G1 X115.203 Y84.797 E26.50925
G1 X115.931 Y85.561 E26.57589
G1 X116.620 Y86.360 E26.64252
G1 X117.269 Y87.192 E26.70916
G1 X117.877 Y88.055 E26.77580
G1 X118.441 Y88.947 E26.84243
G1 X118.961 Y89.865 E26.90907
G1 X119.436 Y90.807 E26.97570
G1 X119.864 Y91.772 E27.04234
G1 X120.243 Y92.757 E27.10898
G1 X120.574 Y93.759 E27.17561
G1 X120.856 Y94.776 E27.24225
G1 X121.087 Y95.806 E27.30889
G1 X121.267 Y96.845 E27.37552
G1 X121.397 Y97.893 E27.44216
G1 X121.474 Y98.945 E27.50879
G1 X121.500 Y100.000 E27.57543
G1 X121.474 Y101.055 E27.64207
G1 X121.397 Y102.107 E27.70870
G1 X121.267 Y103.155 E27.77534
G1 X121.087 Y104.194 E27.84197
G1 X120.856 Y105.224 E27.90861
G1 X120.574 Y106.241 E27.97525
G1 X120.243 Y107.243 E28.04188
G1 X119.864 Y108.228 E28.10852
G1 X119.436 Y109.193 E28.17516
G1 X118.961 Y110.135 E28.24179
G1 X118.441 Y111.053 E28.30843
G1 X117.877 Y111.945 E28.37507
G1 X117.269 Y112.808 E28.44170
G1 X116.620 Y113.640 E28.50834
G1 X115.931 Y114.439 E28.57497
